X:1
T:FADO MADRUGADA
T:FADO MADRUGADA
T:Por F. P, Nogueira
T:in "Cancioneiro de Musicas Populares" Porto - 1893
%%score { ( 1 3 ) | 2 }
L:1/8
M:2/4
K:B
V:1 treble nm="Piano" snm="Pno."
V:3 treble 
V:2 bass 
V:1
"^Andantino" z D, F,B, | DB, DF | BF Bd | f2 z2 | z E, G,C | EC EG | cG ce | g2 z2 | z F, A,C | %9
 EC EF | AF Ac | f2 z2 | z4 | z z z f |: d2 B2 | G A2 G | G2 F2- | F2 z e | c2 A2 | F G2 E | %20
 E2 D2- | D2 z f | d2 B2 | G A2 G | G2 F2- | F2 z e | c2 A2 | F G2 E | E2 D2 | D D2 E | F2 G2 | %31
 A B2 c | e2- e2- | ed cB | A2 G2 | F G2 E | D2 D2- | D D2 E | F2 G2 | A B2 c | e2- e2- | ed cB | %42
 [FA]2 [EG]2 | [DF] [CE]2 [A,C] |1 B,2 B,2- | B, z z f :|2 B,2 B,2- || B, z z2 |] %48
V:2
 [B,,,B,,]4- | [B,,,B,,]4- | [B,,,B,,]4- | [B,,,B,,]2 z2 | [E,,C,]4- | [E,,C,]4- | [E,,C,]4- | %7
 [E,,C,]2 z2 | [F,,C,]4- | [F,,C,]4- | [F,,C,]4- | [F,,C,]2 z2 | B,,D, F,B, | B,,D, F,B, |: %14
 B,,D, F,B, | B,,D, F,B, | C,E, F,A, | C,E, F,A, | F,,E, F,C | A,,E, A,C | B,,F, B,F, | DB, F,B, | %22
 B,,D, F,B, | B,,D, F,B, | C,E, F,A, | C,E, F,A, | F,,E, F,C | A,,E, A,C | B,,D, F,B, | %29
 B,,D, F,B, | B,,D, F,B, | B,,D, F,B, | G,,E, G,C | E,,E, G,C | A,,E, F,A, | A,,E, F,A, | %36
 B,,D, F,B, | B,,D, F,B, | B,,D, F,B, | B,,D, F,B, | G,,C, E,G, | E,,C, E,G, | A,,C, E,F, | %43
 F,,C, E,F, |1 B,,F,, D,,F,, | B,,, z z2 :|2 B,,F,, D,,F,, || B,,, z z2 |] %48
V:3
 x4 | x4 | x4 | x4 | x4 | x4 | x4 | x4 | x4 | x4 | x4 | x4 | x4 | x4 |: x4 | x4 | x4 | x4 | x4 | %19
 x4 | x4 | x4 | x4 | x4 | x4 | x4 | x4 | x4 | x4 | x4 | x4 | x4 | G2- G2- | G4 | F2 E2 | E2 x C | %36
 B,2 B,2- | B, x3 | x4 | x4 | G2- G2- | G4 | x4 | x4 |1 x4 | x4 :|2 x4 || x4 |] %48

